assets/clipboard-fill.svg

<svg xmlns="http://www.w3.org/2000/svg" fill="none" viewBox="0 0 25 28">
  <path fill="#2A2238" fill-rule="evenodd" d="M15.75 2.625c0-.23206-.0922-.45462-.2563-.61872-.1641-.16409-.3866-.25628-.6187-.25628h-5.25c-.23206 0-.45462.09219-.61872.25628-.16409.1641-.25628.38666-.25628.61872v1.75c0 .23206.09219.45462.25628.61872.1641.16409.38666.25628.61872.25628h5.25c.2321 0 .4546-.09219.6187-.25628.1641-.1641.2563-.38666.2563-.61872v-1.75Zm-8.75 0c0-.69619.27656-1.36387.76884-1.856155C8.26113.276562 8.92881 0 9.625 0h5.25c.6962 0 1.3639.276562 1.8562.768845.4922.492285.7688 1.159965.7688 1.856155v1.75c0 .69619-.2766 1.36387-.7688 1.85616C16.2389 6.72344 15.5712 7 14.875 7h-5.25c-.69619 0-1.36387-.27656-1.85616-.76884C7.27656 5.73887 7 5.07119 7 4.375v-1.75Zm-3.5 0h1.75v1.75c0 1.16032.46094 2.27312 1.28141 3.09359C7.35188 8.28906 8.46468 8.75 9.625 8.75h5.25c.5745 0 1.1434-.11316 1.6742-.33303.5308-.21986 1.0131-.54212 1.4194-.94838.4062-.40625.7285-.88855.9484-1.41935.2198-.5308.333-1.09971.333-1.67424v-1.75H21c.9283 0 1.8185.36875 2.4749 1.02513C24.1312 4.3065 24.5 5.19674 24.5 6.125V24.5c0 .9283-.3688 1.8185-1.0251 2.4749C22.8185 27.6312 21.9283 28 21 28H3.5c-.92826 0-1.8185-.3688-2.47487-1.0251C.368749 26.3185 0 25.4283 0 24.5V6.125c0-.92826.368749-1.8185 1.02513-2.47487C1.6815 2.99375 2.57174 2.625 3.5 2.625Z" clip-rule="evenodd"/>
</svg>

<svg width="25" height="28" viewBox="0 0 25 28" fill="none" xmlns="http://www.w3.org/2000/svg">
<path fill-rule="evenodd" clip-rule="evenodd" d="M15.75 2.625C15.75 2.39294 15.6578 2.17038 15.4937 2.00628C15.3296 1.84219 15.1071 1.75 14.875 1.75H9.625C9.39294 1.75 9.17038 1.84219 9.00628 2.00628C8.84219 2.17038 8.75 2.39294 8.75 2.625V4.375C8.75 4.60706 8.84219 4.82962 9.00628 4.99372C9.17038 5.15781 9.39294 5.25 9.625 5.25H14.875C15.1071 5.25 15.3296 5.15781 15.4937 4.99372C15.6578 4.82962 15.75 4.60706 15.75 4.375V2.625ZM7 2.625C7 1.92881 7.27656 1.26113 7.76884 0.768845C8.26113 0.276562 8.92881 0 9.625 0L14.875 0C15.5712 0 16.2389 0.276562 16.7312 0.768845C17.2234 1.26113 17.5 1.92881 17.5 2.625V4.375C17.5 5.07119 17.2234 5.73887 16.7312 6.23116C16.2389 6.72344 15.5712 7 14.875 7H9.625C8.92881 7 8.26113 6.72344 7.76884 6.23116C7.27656 5.73887 7 5.07119 7 4.375V2.625ZM3.5 2.625H5.25V4.375C5.25 5.53532 5.71094 6.64812 6.53141 7.46859C7.35188 8.28906 8.46468 8.75 9.625 8.75H14.875C15.4495 8.75 16.0184 8.63684 16.5492 8.41697C17.08 8.19711 17.5623 7.87485 17.9686 7.46859C18.3748 7.06234 18.6971 6.58004 18.917 6.04924C19.1368 5.51844 19.25 4.94953 19.25 4.375V2.625H21C21.9283 2.625 22.8185 2.99375 23.4749 3.65013C24.1312 4.3065 24.5 5.19674 24.5 6.125V24.5C24.5 25.4283 24.1312 26.3185 23.4749 26.9749C22.8185 27.6312 21.9283 28 21 28H3.5C2.57174 28 1.6815 27.6312 1.02513 26.9749C0.368749 26.3185 0 25.4283 0 24.5V6.125C0 5.19674 0.368749 4.3065 1.02513 3.65013C1.6815 2.99375 2.57174 2.625 3.5 2.625Z" fill="#2A2238"/>
</svg>
